Hatter-kde/actions/24/im-identi.ca.svg

<svg xmlns="http://www.w3.org/2000/svg" viewBox="0 0 24 24">
  <defs id="defs3051">
    <style type="text/css" id="current-color-scheme">
      .ColorScheme-Text {
        color:#363636;
      }
      </style>
  </defs>
 <path style="fill:currentColor;fill-opacity:1;stroke:none" 
     d="M 11 4 C 7.676 4 5 6.676 5 10 L 5 14 L 4 18 L 8 16 L 11 16 C 11.818565 16 12.596956 15.835293 13.306641 15.541016 C 13.177653 15.230639 13.102201 14.895445 13.054688 14.550781 C 12.427015 14.833532 11.735425 15 11 15 L 7.6757812 15 L 6 15 L 6 13.324219 L 6 13 L 6 10 C 6 7.23 8.23 5 11 5 C 13.77 5 16 7.23 16 10 C 16 10.04759 15.993487 10.09336 15.992188 10.140625 C 16.315525 10.056816 16.64972 10 17 10 C 17 6.676 14.324 4 11 4 z M 17 11 C 15.338 11 14 12.338 14 14 C 14 14.978064 14.47132 15.833863 15.191406 16.380859 L 17 20 L 18.808594 16.380859 C 19.52868 15.833863 20 14.978064 20 14 C 20 12.338 18.662 11 17 11 z M 17 12 C 18.108 12 19 12.892 19 14 C 19 15.108 18.108 16 17 16 C 15.892 16 15 15.108 15 14 C 15 12.892 15.892 12 17 12 z M 7 12.978516 L 7 13 L 7.0175781 13 C 7.0119981 12.99 7.00554 12.986516 7 12.978516 z "
     class="ColorScheme-Text"
     />
</svg>

<?xml version="1.0" encoding="UTF-8"?>
<svg viewBox="0 0 24 24" xmlns="http://www.w3.org/2000/svg">
 <defs id="defs3051">
  <style id="current-color-scheme" type="text/css">.ColorScheme-Text {
        color:#363636;
      }</style>
 </defs>
 <path class="ColorScheme-Text" d="m11 4c-3.324 0-6 2.676-6 6v4l-1 4 4-2h3c0.81856 0 1.597-0.16471 2.3066-0.45898-0.12899-0.31038-0.20444-0.64557-0.25195-0.99024-0.62767 0.28275-1.3193 0.44922-2.0547 0.44922h-3.3242-1.6758v-1.6758-0.32422-3c0-2.77 2.23-5 5-5s5 2.23 5 5c0 0.04759-0.006513 0.09336-0.007812 0.14062 0.32334-0.083809 0.65753-0.14062 1.0078-0.14062 0-3.324-2.676-6-6-6zm6 7c-1.662 0-3 1.338-3 3 0 0.97806 0.47132 1.8339 1.1914 2.3809l1.8086 3.6191 1.8086-3.6191c0.72009-0.547 1.1914-1.4028 1.1914-2.3809 0-1.662-1.338-3-3-3zm0 1c1.108 0 2 0.892 2 2s-0.892 2-2 2-2-0.892-2-2 0.892-2 2-2zm-10 0.97852v0.021484h0.017578c-0.00558-0.01-0.012038-0.013484-0.017578-0.021484z" fill="currentColor"/>
</svg>
